source/img/svg/sign-icon.svg

<svg width="96" height="93" viewBox="0 0 96 93" fill="none" xmlns="http://www.w3.org/2000/svg">
<path d="M16.0781 72.6196L20.6527 68.6361L19.2142 66.9558L20.8541 65.5073L25.3616 70.751L23.7217 72.1995L22.2831 70.5289L17.7037 74.5171L16.0781 72.6196Z" fill="white"/>
<path d="M22.5981 73.9761C24.0846 71.9192 26.6836 71.6777 28.736 73.1794C30.7883 74.681 31.359 77.2497 29.8725 79.3114C28.3859 81.3732 25.7869 81.6001 23.7298 80.1033C21.6727 78.6065 21.0972 76.033 22.5981 73.9761ZM27.8105 77.8098C28.0245 77.4848 28.139 77.1037 28.1396 76.7137C28.1403 76.3237 28.0271 75.9422 27.8141 75.6165C27.6012 75.2908 27.2978 75.0353 26.9418 74.8817C26.5858 74.7282 26.1929 74.6834 25.8118 74.753C25.4307 74.8225 25.0783 75.0033 24.7985 75.2728C24.5186 75.5423 24.3236 75.8888 24.2376 76.269C24.1517 76.6492 24.1787 77.0465 24.3152 77.4115C24.4516 77.7764 24.6916 78.0929 25.0053 78.3216C25.2193 78.4837 25.4642 78.5994 25.7247 78.6616C25.9851 78.7238 26.2556 78.7311 26.519 78.683C26.7824 78.635 27.0331 78.5326 27.2554 78.3823C27.4776 78.2321 27.6666 78.0371 27.8105 77.8098Z" fill="white"/>
<path d="M38.401 86.7908L36.6028 81.9286L35.4855 85.9699L33.0879 85.294L35.3033 77.3223L37.768 78.0176L39.4703 82.5659L40.5157 78.7901L42.9133 79.4613L40.6979 87.433L38.401 86.7908Z" fill="white"/>
<path d="M49.0174 87.9012L48.7249 86.9355L45.771 86.9113L45.4689 87.877L42.6445 87.8529L45.7518 79.606L48.8783 79.6349L51.8369 87.935L49.0174 87.9012ZM47.2911 82.0829L46.4567 84.7386H48.0823L47.2911 82.0829Z" fill="white"/>
<path d="M54.4404 87.3942L53.3183 81.4022L51.1508 81.8126L50.748 79.6688L57.5428 78.3989L57.9456 80.5476L55.7926 80.958L56.9147 86.9452L54.4404 87.3942Z" fill="white"/>
<path d="M59.8297 82.8218L57.8301 78.3748L60.1366 77.3271L62.0978 81.6726C62.2849 82.0139 62.5929 82.2717 62.9603 82.3945C63.3277 82.5174 63.7277 82.4963 64.0803 82.3355C64.433 82.1747 64.7126 81.886 64.8633 81.5269C65.014 81.1678 65.0247 80.7647 64.8934 80.3979L62.9322 76.0282L65.2387 74.9805L67.2287 79.4129C68.0726 81.2912 67.5212 83.1936 64.9893 84.3476C62.4575 85.5016 60.6688 84.6904 59.8297 82.8218Z" fill="white"/>
<path d="M74.5028 78.1673L71.9997 76.8491L71.2996 77.4189L72.9156 79.4468L70.9688 81.016L65.8379 74.5653L69.2569 71.8034C70.753 70.5915 72.3642 70.944 73.328 72.1559C73.6681 72.5469 73.8871 73.0296 73.9578 73.5444C74.0285 74.0593 73.9479 74.5837 73.726 75.0529L76.723 76.3856L74.5028 78.1673ZM71.3476 73.7348C71.282 73.6622 71.202 73.6041 71.1128 73.5644C71.0236 73.5247 70.9272 73.5042 70.8297 73.5042C70.7322 73.5042 70.6358 73.5247 70.5466 73.5644C70.4574 73.6041 70.3774 73.6622 70.3118 73.7348L69.1322 74.7005L69.9426 75.7193L71.1222 74.7536C71.207 74.7049 71.2808 74.6389 71.3387 74.5598C71.3967 74.4808 71.4376 74.3904 71.4588 74.2944C71.4801 74.1985 71.4811 74.0991 71.462 74.0028C71.4428 73.9064 71.4038 73.8151 71.3476 73.7348Z" fill="white"/>
<path d="M78.2723 74.676L71.8516 69.5289L75.7644 64.5991L77.4619 65.9656L75.1219 68.9109L75.7549 69.4227L78.0422 66.5257L79.7349 67.8873L77.4476 70.7843L78.1525 71.3541L80.4925 68.4039L82.19 69.7704L78.2723 74.676Z" fill="white"/>
<path d="M25.6589 22.9687L20.6191 16.4165L24.0909 13.7174C25.611 12.5345 27.2125 12.9159 28.1572 14.1423C29.1019 15.3687 29.0539 17.0394 27.5338 18.203L26.0329 19.3715L27.6153 21.4332L25.6589 22.9687ZM26.172 15.726C26.1146 15.6507 26.0417 15.5887 25.9583 15.5442C25.8749 15.4997 25.783 15.4739 25.6889 15.4684C25.5947 15.4629 25.5004 15.4779 25.4125 15.5123C25.3246 15.5468 25.2451 15.5999 25.1794 15.6681L23.9278 16.6338L24.719 17.6622L25.9658 16.6966C26.0514 16.6516 26.1261 16.5881 26.1843 16.5106C26.2426 16.4331 26.2831 16.3436 26.3028 16.2484C26.3225 16.1532 26.321 16.0548 26.2984 15.9603C26.2758 15.8658 26.2326 15.7776 26.172 15.7019V15.726Z" fill="white"/>
<path d="M36.0506 16.4164L33.9791 14.4851L33.1543 14.8472L34.1901 17.2372L31.9076 18.2416L28.6133 10.661L32.6365 8.89375C34.3963 8.11638 35.8588 8.89375 36.4726 10.3036C36.6985 10.7696 36.7847 11.2916 36.7209 11.8061C36.657 12.3205 36.4458 12.8051 36.113 13.2007L38.6448 15.2817L36.0506 16.4164ZM34.1326 11.308C33.9551 10.8975 33.514 10.8734 33.1304 11.0424L31.7398 11.6556L32.2576 12.8482L33.6482 12.235C34.0462 12.0708 34.3388 11.7329 34.1565 11.3128L34.1326 11.308Z" fill="white"/>
<path d="M38.2031 11.0523C37.8339 8.53668 39.517 6.53289 42.0392 6.15628C44.5615 5.77966 46.7433 7.2137 47.1126 9.7293C47.4818 12.2449 45.7939 14.2535 43.2764 14.6301C40.7589 15.0068 38.5723 13.5727 38.2031 11.0523ZM44.6047 10.0866C44.5799 9.81747 44.501 9.55624 44.3726 9.31885C44.2443 9.08146 44.0692 8.8729 43.8582 8.7059C43.6471 8.53889 43.4045 8.41695 43.1451 8.34751C42.8856 8.27806 42.6149 8.26258 42.3493 8.302C42.0838 8.34142 41.829 8.43491 41.6005 8.57678C41.372 8.71865 41.1747 8.90591 41.0204 9.12714C40.8662 9.34836 40.7584 9.59891 40.7035 9.86349C40.6487 10.1281 40.648 10.4011 40.7014 10.666C40.715 10.9426 40.7858 11.2133 40.9092 11.4608C41.0327 11.7082 41.2061 11.927 41.4184 12.1031C41.6306 12.2792 41.8771 12.4087 42.1419 12.4834C42.4067 12.5581 42.6841 12.5762 42.9564 12.5367C43.2286 12.4972 43.4896 12.4009 43.7227 12.254C43.9559 12.1071 44.156 11.9128 44.3102 11.6835C44.4645 11.4542 44.5695 11.1951 44.6185 10.9226C44.6676 10.6501 44.6596 10.3703 44.5951 10.1011L44.6047 10.0866Z" fill="white"/>
<path d="M48.2402 14.0024L49.0506 5.76514L55.2556 6.38317L55.0446 8.55596L51.3092 8.17451L51.2324 8.99051L54.872 9.35265L54.661 11.5254L51.0167 11.1633L50.7146 14.239L48.2402 14.0024Z" fill="white"/>
<path d="M55.2656 14.9344L57.4283 6.94336L59.8259 7.60002L57.6632 15.591L55.2656 14.9344Z" fill="white"/>
<path d="M60.3711 16.5857L62.9125 11.0572L60.8986 10.1398L61.8097 8.16016L68.0434 11.0572L67.1659 13.0369L65.1759 12.1098L62.6296 17.6432L60.3711 16.5857Z" fill="white"/>
<path d="M65.2148 17.527L67.3631 16.8317C67.509 17.8152 68.026 18.7042 68.8065 19.3135C69.1805 19.5984 69.6072 19.7964 69.7991 19.5163C70.2786 18.8838 66.1451 16.7255 68.1111 14.1326C68.9551 13.0173 70.6814 12.6551 72.4748 14.0312C73.4987 14.7728 74.2344 15.8499 74.5559 17.078L72.4076 17.6622C72.1619 16.8193 71.6586 16.0759 70.9691 15.5377C70.5807 15.2383 70.3745 15.2818 70.245 15.4508C69.7655 16.0737 73.8174 18.3478 71.9665 20.762C70.8684 22.2106 69.1661 22.2106 67.411 20.8876C66.2817 20.0889 65.4964 18.8874 65.2148 17.527Z" fill="white"/>
<path d="M16.0182 58.3032V45.5417L12.5273 49.0278L8.99805 45.3244L16.8862 37.541H22.2616V58.3032H16.0182Z" fill="white"/>
<path d="M24.4902 47.9365C24.4902 42.3017 27.4872 37.2271 33.6443 37.2271C39.8013 37.2271 42.7935 42.3017 42.7935 47.9365C42.7935 53.5712 39.8013 58.6748 33.6443 58.6748C27.4872 58.6748 24.4902 53.5954 24.4902 47.9365ZM36.5166 47.9365C36.5166 44.4214 35.6199 42.7701 33.6395 42.7701C31.6591 42.7701 30.7624 44.4214 30.7624 47.9365C30.7624 51.4515 31.6591 53.1367 33.6395 53.1367C35.6199 53.1367 36.5166 51.4564 36.5166 47.9365Z" fill="white"/>
<path d="M43.9004 47.9365C43.9004 42.3017 46.9022 37.2271 53.0544 37.2271C59.2067 37.2271 62.2037 42.3017 62.2037 47.9365C62.2037 53.5712 59.2067 58.6748 53.0544 58.6748C46.9022 58.6748 43.9004 53.5954 43.9004 47.9365ZM55.9268 47.9365C55.9268 44.4214 55.0301 42.7701 53.0496 42.7701C51.0692 42.7701 50.1725 44.4214 50.1725 47.9365C50.1725 51.4515 51.0692 53.1367 53.0496 53.1367C55.0301 53.1367 55.9268 51.4564 55.9268 47.9365Z" fill="white"/>
<path d="M63.377 42.49C63.377 39.564 65.506 37.2271 68.8771 37.2271C72.2481 37.2271 74.4443 39.564 74.4443 42.49C74.4443 45.416 72.2769 47.6902 68.8771 47.6902C65.4773 47.6902 63.377 45.3871 63.377 42.49ZM66.8055 58.3031L79.9779 37.5409H83.0085L69.8073 58.3031H66.8055ZM70.6705 42.49C70.6705 41.0898 69.8697 40.5297 68.8771 40.5297C67.8844 40.5297 67.1316 41.0898 67.1316 42.49C67.1316 43.8903 67.9036 44.3876 68.8627 44.3876C69.8217 44.3876 70.6705 43.8275 70.6705 42.49ZM75.341 53.4795C75.341 50.5535 77.4749 48.2165 80.8411 48.2165C84.2073 48.2165 86.3748 50.5535 86.3748 53.4795C86.3748 56.4055 84.2121 58.6748 80.8411 58.6748C77.4701 58.6748 75.341 56.3717 75.341 53.4795ZM82.6345 53.4795C82.6345 52.0792 81.8337 51.5143 80.8411 51.5143C79.8485 51.5143 79.0812 52.0792 79.0812 53.4795C79.0812 54.8797 79.8533 55.377 80.8411 55.377C81.8289 55.377 82.6345 54.8459 82.6345 53.4795Z" fill="white"/>
<path d="M91.3731 35.4212C91.1254 35.4205 90.8847 35.3379 90.6881 35.1861C90.4914 35.0343 90.3497 34.8218 90.2846 34.5811C87.7015 25.2897 82.1708 17.1042 74.5363 11.2734C66.9019 5.44247 57.5827 2.28629 48.0005 2.28629C38.4183 2.28629 29.0991 5.44247 21.4646 11.2734C13.8302 17.1042 8.2995 25.2897 5.71637 34.5811C5.6828 34.7327 5.61893 34.8758 5.52867 35.0017C5.4384 35.1276 5.32362 35.2337 5.19133 35.3135C5.05903 35.3934 4.91198 35.4452 4.75913 35.466C4.60628 35.4868 4.45083 35.476 4.30226 35.4343C4.15368 35.3927 4.01508 35.321 3.89489 35.2237C3.77471 35.1263 3.67546 35.0054 3.60319 34.8682C3.53092 34.731 3.48714 34.5804 3.47452 34.4256C3.46189 34.2708 3.48069 34.1151 3.52976 33.9679C6.24483 24.1945 12.0609 15.584 20.0903 9.45015C28.1198 3.31633 37.9218 -0.00390625 48.0005 -0.00390625C58.0792 -0.00390625 67.8812 3.31633 75.9107 9.45015C83.9401 15.584 89.7561 24.1945 92.4712 33.9679C92.5113 34.1128 92.5226 34.2642 92.5046 34.4135C92.4865 34.5628 92.4394 34.707 92.3659 34.838C92.2924 34.9689 92.194 35.084 92.0763 35.1766C91.9586 35.2692 91.824 35.3376 91.68 35.3778C91.5803 35.4067 91.4769 35.4214 91.3731 35.4212Z" fill="white"/>
<path d="M47.9982 93.0002C38.5837 92.9734 29.4003 90.0623 21.6684 84.6538C13.9365 79.2453 8.02233 71.5956 4.71191 62.7212C4.60699 62.4376 4.61827 62.1236 4.74327 61.8483C4.86826 61.5731 5.09674 61.3591 5.37844 61.2534C5.66014 61.1478 5.97198 61.1591 6.24536 61.285C6.51874 61.4109 6.73126 61.6409 6.83618 61.9246C9.9616 70.3781 15.5796 77.6671 22.9365 82.8139C30.2935 87.9607 39.0375 90.7191 47.9958 90.7191C56.9541 90.7191 65.6982 87.9607 73.0551 82.8139C80.4121 77.6671 86.0301 70.3781 89.1555 61.9246C89.2681 61.6511 89.4817 61.4322 89.7513 61.314C90.0208 61.1957 90.3254 61.1873 90.6011 61.2904C90.8767 61.3936 91.1019 61.6002 91.2293 61.8671C91.3568 62.1339 91.3766 62.44 91.2845 62.7212C87.9735 71.5952 82.0592 79.2446 74.3275 84.653C66.5957 90.0614 57.4125 92.9727 47.9982 93.0002Z" fill="white"/>
<path d="M47.9999 76.5254C42.6998 76.5195 37.4966 75.0938 32.9243 72.3947C28.3519 69.6956 24.575 65.8203 21.9811 61.1662C21.9074 61.0343 21.8887 60.8783 21.9291 60.7325C21.9696 60.5868 22.0659 60.4631 22.1969 60.3889C22.3279 60.3146 22.4828 60.2958 22.6276 60.3365C22.7724 60.3772 22.8952 60.4742 22.9689 60.6061C25.4602 65.0863 29.0926 68.8167 33.4918 71.4132C37.8911 74.0098 42.8982 75.3785 47.9975 75.3785C53.0968 75.3785 58.104 74.0098 62.5032 71.4132C66.9025 68.8167 70.5348 65.0863 73.0261 60.6061C73.1058 60.4858 73.2277 60.4001 73.3674 60.3663C73.5072 60.3325 73.6544 60.353 73.7798 60.4237C73.9051 60.4945 73.9994 60.6102 74.0437 60.7479C74.0879 60.8855 74.079 61.0349 74.0187 61.1662C71.4244 65.8199 67.6474 69.695 63.0752 72.3941C58.5029 75.0931 53.3 76.519 47.9999 76.5254Z" fill="white"/>
<path d="M94.8631 35.4166H1.13603C0.980897 35.4268 0.825347 35.4048 0.678995 35.352C0.532644 35.2992 0.398605 35.2168 0.285167 35.1097C0.17173 35.0027 0.0813072 34.8734 0.0194913 34.7297C-0.0423245 34.5861 -0.0742188 34.4312 -0.0742188 34.2747C-0.0742188 34.1182 -0.0423245 33.9633 0.0194913 33.8197C0.0813072 33.676 0.17173 33.5467 0.285167 33.4397C0.398605 33.3327 0.532644 33.2502 0.678995 33.1974C0.825347 33.1446 0.980897 33.1226 1.13603 33.1328H94.8631C95.0182 33.1226 95.1738 33.1446 95.3201 33.1974C95.4665 33.2502 95.6005 33.3327 95.714 33.4397C95.8274 33.5467 95.9178 33.676 95.9796 33.8197C96.0415 33.9633 96.0733 34.1182 96.0733 34.2747C96.0733 34.4312 96.0415 34.5861 95.9796 34.7297C95.9178 34.8734 95.8274 35.0027 95.714 35.1097C95.6005 35.2168 95.4665 35.2992 95.3201 35.352C95.1738 35.4048 95.0182 35.4268 94.8631 35.4166Z" fill="white"/>
<path d="M94.8635 62.3253H1.13646C0.835055 62.3253 0.545991 62.2047 0.332862 61.9901C0.119734 61.7755 0 61.4844 0 61.181C0 60.8775 0.119734 60.5864 0.332862 60.3718C0.545991 60.1572 0.835055 60.0366 1.13646 60.0366H94.8635C95.1649 60.0366 95.454 60.1572 95.6671 60.3718C95.8803 60.5864 96 60.8775 96 61.181C96 61.4844 95.8803 61.7755 95.6671 61.9901C95.454 62.2047 95.1649 62.3253 94.8635 62.3253Z" fill="white"/>
<path d="M74.4504 34.533C74.3427 34.5331 74.2372 34.5023 74.1463 34.4441C74.0554 34.386 73.9829 34.3029 73.9373 34.2047C71.6245 29.2443 67.9567 25.0497 63.3631 22.1114C58.7694 19.1731 53.4398 17.6127 47.9976 17.6127C42.5555 17.6127 37.2258 19.1731 32.6322 22.1114C28.0385 25.0497 24.3707 29.2443 22.0579 34.2047C22.0265 34.2725 21.982 34.3335 21.9271 34.384C21.8723 34.4346 21.808 34.4738 21.7381 34.4993C21.6682 34.5249 21.594 34.5363 21.5197 34.533C21.4454 34.5297 21.3725 34.5116 21.3051 34.4799C21.2377 34.4482 21.1772 34.4035 21.127 34.3482C21.0768 34.293 21.0379 34.2283 21.0125 34.1579C20.9871 34.0875 20.9758 34.0128 20.9791 33.9379C20.9824 33.8631 21.0003 33.7897 21.0318 33.7219C23.4374 28.5675 27.2505 24.2092 32.0253 21.1564C36.8001 18.1036 42.3392 16.4824 47.9952 16.4824C53.6512 16.4824 59.1904 18.1036 63.9651 21.1564C68.7399 24.2092 72.553 28.5675 74.9587 33.7219C74.991 33.7899 75.0095 33.8638 75.0132 33.9392C75.017 34.0145 75.0058 34.0899 74.9804 34.1608C74.9549 34.2318 74.9158 34.297 74.8651 34.3526C74.8145 34.4082 74.7534 34.4531 74.6853 34.4847C74.6117 34.5188 74.5313 34.5353 74.4504 34.533Z" fill="white"/>
</svg>

<svg width="96" height="93" fill="none" xmlns="http://www.w3.org/2000/svg"><path d="M16.078 72.62l4.575-3.984-1.439-1.68 1.64-1.449 4.508 5.244-1.64 1.448-1.439-1.67-4.58 3.988-1.625-1.897zm6.52 1.356c1.487-2.057 4.086-2.298 6.138-.797 2.052 1.502 2.623 4.07 1.136 6.132-1.486 2.062-4.085 2.29-6.142.792-2.057-1.496-2.633-4.07-1.132-6.127zm5.213 3.834a1.999 1.999 0 0 0-.87-2.928 1.963 1.963 0 0 0-2.142.39 1.993 1.993 0 0 0-.484 2.14c.137.364.377.68.69.91a1.936 1.936 0 0 0 2.806-.512zm10.59 8.98l-1.798-4.861-1.117 4.04-2.398-.675 2.215-7.972 2.465.696 1.702 4.548 1.046-3.776 2.397.671-2.215 7.972-2.297-.642zm10.616 1.111l-.292-.965-2.954-.025-.302.966-2.825-.024 3.108-8.247 3.126.029 2.959 8.3-2.82-.034zm-1.726-5.818l-.834 2.656h1.625l-.79-2.656zm7.149 5.311l-1.122-5.992-2.167.41-.403-2.143 6.795-1.27.403 2.149-2.153.41 1.122 5.987-2.475.45zm5.39-4.572l-2-4.447 2.307-1.048 1.96 4.346c.188.34.496.599.863.721a1.53 1.53 0 0 0 1.12-.059 1.558 1.558 0 0 0 .813-1.938l-1.96-4.369 2.306-1.047 1.99 4.432c.844 1.878.292 3.78-2.24 4.935-2.532 1.154-4.32.342-5.16-1.526zm14.673-4.655L72 76.85l-.7.57 1.616 2.028-1.947 1.569-5.131-6.45 3.419-2.763c1.496-1.212 3.107-.859 4.071.353a2.67 2.67 0 0 1 .398 2.897l2.997 1.333-2.22 1.781zm-3.155-4.432a.7.7 0 0 0-.801-.17.7.7 0 0 0-.235.17l-1.18.966.81 1.018 1.18-.965a.7.7 0 0 0 .337-.46.71.71 0 0 0-.111-.56zm6.924.941l-6.42-5.147 3.912-4.93 1.698 1.367-2.34 2.945.633.512 2.287-2.897 1.693 1.361-2.287 2.897.705.57 2.34-2.95 1.697 1.366-3.918 4.906zM25.659 22.969l-5.04-6.553 3.472-2.699c1.52-1.183 3.121-.801 4.066.425.945 1.227.897 2.897-.623 4.061l-1.501 1.169 1.582 2.061-1.956 1.536zm.513-7.243a.659.659 0 0 0-.76-.214.657.657 0 0 0-.233.156l-1.251.966.791 1.028 1.247-.965a.654.654 0 0 0 .332-.737.659.659 0 0 0-.126-.258v.024zm9.878.69l-2.07-1.93-.826.361 1.036 2.39-2.282 1.005-3.295-7.581 4.023-1.767c1.76-.778 3.223 0 3.837 1.41a2.687 2.687 0 0 1-.36 2.897l2.532 2.08-2.594 1.135zm-1.917-5.108c-.178-.41-.619-.435-1.003-.266l-1.39.614.518 1.192 1.39-.613c.398-.164.69-.502.508-.922l-.023-.005zm4.07-.256c-.37-2.515 1.314-4.52 3.836-4.896 2.523-.376 4.704 1.058 5.074 3.573.369 2.516-1.32 4.525-3.837 4.901-2.517.377-4.704-1.057-5.073-3.578zm6.402-.965a2 2 0 0 0-.747-1.381 1.97 1.97 0 0 0-1.509-.404 1.967 1.967 0 0 0-1.329.825 1.997 1.997 0 0 0-.319 1.539 2.002 2.002 0 0 0 .717 1.437 1.97 1.97 0 0 0 1.538.434 1.967 1.967 0 0 0 1.354-.854 1.995 1.995 0 0 0 .285-1.582l.01-.014zm3.635 3.915l.81-8.237 6.206.618-.211 2.173-3.736-.381-.077.816 3.64.362-.211 2.172-3.644-.362-.302 3.076-2.475-.237zm7.026.932l2.162-7.99 2.398.656-2.163 7.991-2.397-.657zm5.105 1.652l2.541-5.529-2.013-.917.91-1.98 6.234 2.897-.877 1.98-1.99-.927-2.546 5.533-2.259-1.057zm4.844.941l2.148-.695a3.868 3.868 0 0 0 1.444 2.482c.373.284.8.482.992.202.48-.632-3.654-2.79-1.688-5.383.844-1.116 2.57-1.478 4.364-.102a5.471 5.471 0 0 1 2.08 3.047l-2.147.584a4.177 4.177 0 0 0-1.439-2.124c-.388-.3-.594-.256-.724-.087-.48.623 3.572 2.897 1.721 5.311-1.098 1.449-2.8 1.449-4.555.126a5.474 5.474 0 0 1-2.196-3.361zM16.018 58.303V45.542l-3.49 3.486-3.53-3.704 7.888-7.783h5.376v20.762h-6.244zm8.472-10.366c0-5.635 2.997-10.71 9.154-10.71s9.15 5.075 9.15 10.71c0 5.634-2.993 10.738-9.15 10.738s-9.154-5.08-9.154-10.738zm12.027 0c0-3.516-.897-5.167-2.878-5.167-1.98 0-2.877 1.651-2.877 5.166 0 3.516.897 5.2 2.877 5.2 1.98 0 2.878-1.68 2.878-5.2zm7.383 0c0-5.635 3.002-10.71 9.154-10.71 6.153 0 9.15 5.075 9.15 10.71 0 5.634-2.997 10.738-9.15 10.738-6.152 0-9.154-5.08-9.154-10.738zm12.027 0c0-3.516-.897-5.167-2.877-5.167-1.98 0-2.877 1.651-2.877 5.166 0 3.516.896 5.2 2.877 5.2 1.98 0 2.877-1.68 2.877-5.2zm7.45-5.447c0-2.926 2.129-5.263 5.5-5.263s5.567 2.337 5.567 5.263c0 2.926-2.167 5.2-5.567 5.2-3.4 0-5.5-2.303-5.5-5.2zm3.428 15.813l13.173-20.762h3.03l-13.2 20.762h-3.003zM70.67 42.49c0-1.4-.8-1.96-1.793-1.96-.993 0-1.745.56-1.745 1.96s.772 1.898 1.73 1.898c.96 0 1.809-.56 1.809-1.898zm4.671 10.99c0-2.926 2.134-5.263 5.5-5.263s5.534 2.337 5.534 5.263c0 2.926-2.163 5.195-5.534 5.195-3.37 0-5.5-2.303-5.5-5.195zm7.294 0c0-1.4-.801-1.966-1.794-1.966-.992 0-1.76.565-1.76 1.965 0 1.4.772 1.898 1.76 1.898s1.794-.531 1.794-1.898z" fill="#fff"/><path d="M91.373 35.421a1.12 1.12 0 0 1-.685-.235 1.14 1.14 0 0 1-.403-.605 44.224 44.224 0 0 0-15.749-23.308 43.712 43.712 0 0 0-26.535-8.987 43.713 43.713 0 0 0-26.536 8.987A44.225 44.225 0 0 0 5.716 34.581a1.148 1.148 0 0 1-.525.732 1.13 1.13 0 0 1-1.588-.445 1.15 1.15 0 0 1-.073-.9A46.51 46.51 0 0 1 20.09 9.45 45.97 45.97 0 0 1 48-.004 45.97 45.97 0 0 1 75.91 9.45a46.51 46.51 0 0 1 16.561 24.518 1.153 1.153 0 0 1-.395 1.209 1.134 1.134 0 0 1-.703.244zM47.998 93a46.159 46.159 0 0 1-26.33-8.346A46.655 46.655 0 0 1 4.712 62.72a1.149 1.149 0 0 1 .031-.873 1.126 1.126 0 0 1 1.502-.563c.274.126.486.356.591.64a44.183 44.183 0 0 0 16.1 20.889 43.71 43.71 0 0 0 25.06 7.905 43.71 43.71 0 0 0 25.06-7.905 44.182 44.182 0 0 0 16.1-20.89 1.14 1.14 0 0 1 .595-.61 1.13 1.13 0 0 1 1.478.553c.128.267.148.573.055.854a46.66 46.66 0 0 1-16.957 21.932A46.164 46.164 0 0 1 47.998 93z" fill="#fff"/><path d="M48 76.525a29.717 29.717 0 0 1-15.076-4.13 29.983 29.983 0 0 1-10.943-11.229.575.575 0 0 1 .216-.777.563.563 0 0 1 .772.217 28.79 28.79 0 0 0 10.523 10.807 28.534 28.534 0 0 0 14.506 3.966c5.099 0 10.106-1.37 14.505-3.966a28.79 28.79 0 0 0 10.523-10.807.57.57 0 0 1 .993.56 29.99 29.99 0 0 1-10.944 11.228A29.723 29.723 0 0 1 48 76.525zm46.863-41.108H1.136a1.128 1.128 0 0 1-.85-.307 1.143 1.143 0 0 1-.36-.835 1.151 1.151 0 0 1 .36-.835 1.136 1.136 0 0 1 .85-.307h93.727a1.128 1.128 0 0 1 .851.307 1.143 1.143 0 0 1 .36.835 1.15 1.15 0 0 1-.754 1.077 1.128 1.128 0 0 1-.457.065z" fill="#fff"/><path d="M94.864 62.325H1.136c-.3 0-.59-.12-.803-.335a1.148 1.148 0 0 1 0-1.618 1.13 1.13 0 0 1 .803-.335h93.728c.3 0 .59.12.803.335a1.148 1.148 0 0 1 0 1.618 1.133 1.133 0 0 1-.803.335zM74.45 34.533a.563.563 0 0 1-.513-.328A28.793 28.793 0 0 0 63.363 22.11a28.512 28.512 0 0 0-15.365-4.498 28.512 28.512 0 0 0-15.366 4.498 28.793 28.793 0 0 0-10.574 12.094.568.568 0 0 1-.753.275.566.566 0 0 1-.326-.542.573.573 0 0 1 .053-.216 29.933 29.933 0 0 1 10.993-12.566 29.643 29.643 0 0 1 15.97-4.674 29.643 29.643 0 0 1 15.97 4.674A29.934 29.934 0 0 1 74.96 33.722a.572.572 0 0 1-.274.763.523.523 0 0 1-.235.048z" fill="#fff"/></svg>
